lib/logo_tmp/nrk-logo-nrk-tv-on-dark.svg

<svg width="58" height="24" viewBox="0 0 58 24" fill="none" xmlns="http://www.w3.org/2000/svg">
<path d="M0 17.9977V5.99877H3.93719V17.9977H0ZM9.29381 7.90846L11.5581 17.9977H7.24917L4.54549 5.99877H6.96218C7.51635 5.99158 8.05406 6.18693 8.4745 6.54807C8.89562 6.89406 9.18495 7.37438 9.29381 7.90846ZM12.1495 17.9977V5.99877H16.0867V17.9977H12.1495ZM19.0605 10.5618C18.6362 10.5659 18.2188 10.4549 17.8525 10.2406C17.4912 10.0318 17.1911 9.73164 16.9823 9.37028C16.7678 9.00401 16.6568 8.58644 16.661 8.162C16.6561 7.74014 16.7672 7.32506 16.9823 6.96211C17.1933 6.60467 17.4931 6.30777 17.8525 6.1002C18.2189 5.88618 18.6362 5.7752 19.0605 5.77906C19.4822 5.77452 19.8971 5.88561 20.2602 6.1002C20.616 6.30959 20.9127 6.60624 21.122 6.96211C21.3368 7.32516 21.4479 7.74017 21.4433 8.162C21.4473 8.58641 21.3363 9.00391 21.122 9.37028C20.9149 9.73006 20.6179 10.03 20.2602 10.2406C19.8971 10.4557 19.4824 10.5668 19.0605 10.5618ZM22.0516 17.9977V5.99877H25.9892V17.9977H22.0516ZM30.9737 12.5559C30.9848 12.5676 31.0693 12.7056 31.2272 12.97C31.3851 13.2343 31.5906 13.5724 31.8439 13.984C32.0974 14.3954 32.3649 14.8319 32.6463 15.2937C32.9278 15.7554 33.1926 16.192 33.4408 16.6035C33.6881 17.0149 33.9697 17.4796 34.2857 17.9977H29.9598C29.6893 17.5583 29.4441 17.1611 29.2245 16.8062C29.0048 16.4514 28.7713 16.0683 28.5238 15.657C28.2758 15.2462 28.0306 14.8462 27.7882 14.4571C27.5458 14.0681 27.3375 13.7273 27.1633 13.4347C26.9883 13.142 26.8671 12.9448 26.7997 12.8432C26.6325 12.5911 26.5336 12.3 26.5127 11.9982C26.5294 11.7086 26.6226 11.4287 26.7828 11.1868C26.8503 11.0741 26.9743 10.8741 27.1545 10.5868C27.3348 10.2995 27.546 9.95873 27.7882 9.5644C28.0304 9.17007 28.2756 8.76728 28.5238 8.35606C28.772 7.94483 29.0056 7.55892 29.2245 7.19839C29.4445 6.83823 29.6897 6.43827 29.9598 5.9985H34.2857L30.9396 11.4572C30.8361 11.6192 30.7777 11.806 30.7706 11.9982C30.7818 12.2 30.8528 12.394 30.9737 12.5559Z" fill="white"/>
<path d="M37.0956 7.48732H41.0052V18H42.7978V7.48732H46.6903V6H37.0956V7.48732Z" fill="#8BB5EB"/>
<path d="M56.1143 6L53.5705 13.4704C53.4447 13.8535 53.3166 14.2592 53.1861 14.6873C53.0556 15.1155 52.9305 15.5437 52.8108 15.9718C52.7487 16.1929 52.6893 16.4062 52.6324 16.6118C52.5726 16.3946 52.5097 16.171 52.4437 15.938C52.3179 15.4986 52.1898 15.062 52.0593 14.6282C51.9288 14.1944 51.7951 13.7859 51.6581 13.4028L49.1655 6H47.2534L51.4532 18H53.6726L57.8895 6H56.1143Z" fill="#8BB5EB"/>
</svg>

<svg xmlns="http://www.w3.org/2000/svg" viewBox="0 0 58 24"><path fill="#fff" d="M0 17.998v-12h3.937v12H0Zm9.294-10.09 2.264 10.09H7.25l-2.704-12h2.417a2.276 2.276 0 0 1 1.513.55c.42.346.71.826.819 1.36Zm2.855 10.09v-12h3.938v12h-3.938Zm6.912-7.436a2.381 2.381 0 0 1-2.078-1.192 2.345 2.345 0 0 1-.322-1.208 2.301 2.301 0 0 1 .321-1.2A2.41 2.41 0 0 1 20.26 6.1c.356.21.653.506.862.862.215.363.326.778.321 1.2a2.35 2.35 0 0 1-.321 1.208c-.207.36-.504.66-.862.87a2.3 2.3 0 0 1-1.2.322Zm2.99 7.436v-12h3.938v12h-3.937Zm8.923-5.442c.01.012.095.15.253.414s.364.602.617 1.014a309.436 309.436 0 0 1 1.597 2.62c.247.41.529.876.845 1.394H29.96c-.27-.44-.516-.837-.736-1.192-.22-.355-.453-.738-.7-1.149-.248-.41-.493-.81-.736-1.2a60.12 60.12 0 0 1-.625-1.022 18.04 18.04 0 0 0-.363-.592 1.747 1.747 0 0 1-.287-.845c.016-.29.11-.57.27-.811.067-.113.191-.313.371-.6s.392-.628.634-1.023c.242-.394.488-.797.736-1.208l.7-1.158.736-1.2h4.326l-3.346 5.46a1.079 1.079 0 0 0-.17.54c.012.202.083.396.204.558Z"/><path fill="#8BB5EB" d="M37.096 7.487h3.91V18h1.792V7.487h3.892V6h-9.594v1.487ZM56.114 6l-2.543 7.47a59.795 59.795 0 0 0-.76 2.502l-.179.64a95.445 95.445 0 0 0-.573-1.984 25.23 25.23 0 0 0-.4-1.225L49.165 6h-1.913l4.2 12h2.22l4.216-12h-1.775Z"/></svg>
